X: 811
T: Alan McCartney's
R: reel
M: 4/4
K: Edorian
|:BEE2 BEcE|E2cE d2cd|BGEF GABd|fage fded|
BEE2 BEcE|d2ce dBAd|BEE2 BAGB|AFdF E2dc:|
|:BGG2 BedB|(3cBA ed cEED|gBB2 gBdc|dBAd BEED|
BGdG BedB|cAed cdef|gbaf gedB|AFdF E2dc:|

